X:224 
T:Uncle's Jig 
M:6/8 
L:1/8 
K:G 
B2c |: ded dcB | ded d2d | g2g f2e | d3 dcB | c2e edc | 
B2d G2B | A2B c2 B |1 A2 G FED :|2 G3G3 || 
[K:D] 
A2d c2e | d2f a2f | e2f gfe | d2f A3 | A2d c2e | 
d2f a2f | e2f gfe |1 d3d3 :|2 d3 | 

